X:1
T:Gordon Castle [4]
M:C
L:1/8
R:Air
N:"Slow"
S:McGibbon - Scots Tunes, Book II, p. 31 (c. 1746)
Z:AK/Fiddler's Companion
K:Emin
"Slow"B>A | (GFG)B E2 e>f | {e/f/}(gf)T(e^d) e2 (d>c) | (cB)(AG) A2 (B>d) |
e2 (d>e) B2 g>a | (ba)(ge) (dB)(ge) | (dB)T(AG) A2 (g>f) |
(ef/g/) d>e Bg(AB) | (G2TF2)E2 :||: (g>a) | bdBG (g>abG) |
(Bd)(ed) (B/A/B/)g/ BG | (ef/g/) (fg/a/) (ga/b/) (fg/a/) | g(f/g/) (e/g/)(^d/f/) e2 (e/f/g) |
(BG)(Bd) (ed)Bg | {e}d(c/B/) (c/B/)(A/G/) A2 B>d | eBge (^dc/B/) eA | G>B A/(G/F/G/) E2 :|

